packages/gestalt-icons-android/vr-theme/ic_vr_flag_gestalt.svg

<svg width="24" height="24" viewBox="0 0 24 24" fill="none" xmlns="http://www.w3.org/2000/svg">
<path fill-rule="evenodd" clip-rule="evenodd" d="M4 1V2.82088L4.50246 2.73708C4.50382 2.73685 4.50519 2.73662 4.50655 2.73639L8.83554 2.01436C8.83634 2.01422 8.83714 2.01409 8.83794 2.01396L12.5064 1.40209C14.3351 1.09708 16 2.50724 16 4.36121V4.56701L22.7782 3.02492C23.1762 2.93436 23.5893 3.09481 23.8218 3.43027C24.0544 3.76574 24.0597 4.20887 23.8353 4.54982L20.2534 9.99127L23.753 13.9953C23.99 14.2665 24.0628 14.6442 23.9438 14.984C23.8247 15.3239 23.532 15.5735 23.1776 15.6375L12.5329 17.559C10.6925 17.8912 9 16.4768 9 14.6067V14.3894L4 15.3418L4 22H2L2 1H4ZM11 13.2003V14.6067C11 15.2301 11.5642 15.7015 12.1776 15.5908L21.0858 13.9828L17.7466 10.1621L20.7979 5.52654L14 7.07314V4.36121C14 3.74322 13.4451 3.27317 12.8355 3.37484L4.83559 4.70914C4.8348 4.70927 4.83401 4.70941 4.83322 4.70954C4.35414 4.79061 4.0028 5.20434 4.00012 5.68993L4.00003 12.103C4.0034 12.7275 4.57273 13.1968 5.18713 13.0797L9.81287 12.1987C9.81366 12.1985 9.81446 12.1984 9.81525 12.1982L11 11.9725V13.1639C11.0002 13.1761 11.0002 13.1882 11 13.2003Z" fill="black"/>
</svg>

<svg xmlns="http://www.w3.org/2000/svg" width="24" height="24"><path d="M4 1v1.82l.5-.08L8.85 2l3.67-.6A3 3 0 0 1 16 4.35v.2l6.78-1.54a1 1 0 0 1 1.06 1.53l-3.59 5.44 3.5 4a1 1 0 0 1-.57 1.65l-10.65 1.92A3 3 0 0 1 9 14.6v-.22l-5 .95V22H2V1zm7 12.2v1.4a1 1 0 0 0 1.18 1l8.9-1.62-3.33-3.82 3.05-4.63L14 7.07v-2.7a1 1 0 0 0-1.16-1l-8 1.34a1 1 0 0 0-.84.98v6.41a1 1 0 0 0 1.19.98l4.62-.88 1.19-.23z"/></svg>
